load_support('t1'); use_bpm 130.0

#ab2

live_loop :name do
  tick
  pos = [1,5,3].shuffle
  zero_cc ldelay: pos[0],cdelay: pos[1], rdelay: pos[2]

  midi :ab2, port: :iac_bus_1, channel:2

  midi :ab2, sus: 4, port: :iac_bus_1, channel:3 if spread(1,4).look

  sleep 1

  #midi :g2, 1,  port: :iac_bus_1, channel:2, sus: 1

  sleep 1
end
