load_support('piezoelectric_resonator'); use_bpm 127
alive perc: 0, sop: 0
#init true &&  start_init

#crash
#star life: 8, size: 8


#flop_on :d2
#create_cube
#create_cube
#yes{
#  sync :unsyncable
#  $triggered=false
#  overclock_on :A3
#}

#create_aura
#recover
#slow_init
#create_cube -2
, force: 200
live_loop(:unsyncable)do;sleep 1.0;end

colorb 0.9
star size: 3, life: 4
