
puts spread(1,4)

use_bpm 60
live_loop :a do
  tick
  sample :sn_dolf if spread(1,4).look 
  sample :sn_zome if spread(3,7).look 
  
  sleep 1/2.0
end


live_loop :b, sync: :a do
#  sample :sn_dub, amp: 0.2
  sleep 1/2.0
end
